X: 37800
T: Sonny Brogan's
R: jig
M: 6/8
K: Adorian
|:cAB c3|dB/c/d e3|A3 cde|dcA GED|
cAB c3|dB/c/d e3|a3 ged|cAG A3:|
|:e2a aba|gef ged|e2a aba|ged cAG|
e2a aba|gef g3|a3 ged|cAG A3:|

